X:1
T:A minor Samuel Babcock, 1803
T:Isaac Watts, 1706 (Hymn 18, Book 1)        86. 86. (C. M.)
T:Christian's Hope
T:Transcribed from The Middlesex Harmony, 1803.
%%score [ 1 2 3 ]
L:1/8
Q:1/4=100
M:2/4
K:C
V:1 treble nm="Treble" snm="Tr."
V:2 treble-8 nm="Tenor" snm="T."
V:3 bass nm="Bass" snm="B."
V:1
 A2 cB | A3 ^G | Ac BA | G3 E | A3 e | e2 cA | ^G4 | e2 ee | e2 c2 | B2 A2 | ^G3 G | A3 f | ed cB | %13
 A4 | z2 A2 | c3 c | c2 d2 | B2 G2 | c3 B | cd ed | cB A>c | B3 e | e2 c2 | d2 e2 | c2 A2 | ^G3 G | %26
 AB cd | ed cB | A4 |:[M:6/4] c2 B2 c2 G4 c2 | A4 ^G2 A4 z2 | z12 | z4 z2 z4 G2 | A4 B2 c4 A>c | %34
 B4 A2 ^G6 | A6 z4 z2 | e6 z4 z2 | A2 B2 c2 (B2 A2) ^G2 | A6- A4 z2 :| %39
V:2
 A2 AB | c3 e | e2 dc | B3 B | c3 c | A2 c2 | B4 | B2 BB | c2 c2 | d2 c2 | B3 B | c3 A | ^G2 G2 | %13
w: Hear what the|voice from|heav'n pro- *|claims, For|all the|pi- ous|dead;|Sweet is the|sa- vor|of their|names, And|soft their|slee- ping|
 A4 | z2 E2 | A3 G | A2 A2 | G2 B2 | c3 d | ed cd | ed cd | e3 B | c2 c2 | B2 B2 | A2 c2 | B3 B | %26
w: bed.|They|die in|Je- sus,|and are|blest; How|kind * their *|slum- * bers *|are! From|suff- erings|and from|sins re-|leased, And|
 cd ed | cB A^G | A4 |:[M:6/4] c2 B2 c2 d4 e2 | (d2 c2) B2 A4 c2 | e4 d2 c4 d2 | e6- e4 B2 | %33
w: freed * from *|eve- * ry *|snare,|Far from this world of|toil * and strife, They're|pre- sent with the|Lord;~ _ The|
 c4 B2 A4 c2 | d4 c2 B6 | c6 z4 z2 | B6 z4 z2 | c2 d2 e2 (d2 c2) B2 | A6- A4 z2 :| %39
w: la- bors of their|mor- tal life|End,|End,|End in a large * re-|ward. *|
V:3
 A,2 A,E, | A,,3 E, | A,2 B,2 | E,3 E, | C,3 C, | C,2 D,2 | E,4 | E,2 E,E, | A,2 A,2 | G,2 A,2 | %10
 E,3 E, | A,3 D, | E,2 E,2 | A,,4 | z2 A,,2 | A,,3 E, | F,2 D,2 | E,2 G,2 | C,3 z | z4 | z4 | %21
 z2 z E, | A,2 A,2 | G,2 E,2 | A,2 A,,2 | E,3 E, | A,2 G,2 | C,D, E,2 | A,,4 |: %29
[M:6/4] C2 B,2 C2 G,4 E,2 | (F,2 D,2) E,2 A,4 A,2 | C4 B,2 A,4 B,2 | E,6- E,4 z2 | z12 | z12 | %35
 A,6 z4 z2 | E,6 z4 z2 | F,2 D,2 C,2 D,4 E,2 | A,,6- A,,4 z2 :| %39

